X: 37
T:Yellow Tinker
R:Reel
M:4/4
S:Sharon Shannon, Clare (accordian)
D:Session tape, Doolin 1987
H:'Box' version of the fiddle tune
Z:Bernie Stocks
K:D %i.e. A modal (but no 'c' anyway)
A3G EGDG | EA(3.A.A.A fAeA | EAAG EDEF | G2DG B,GDG :| (3.A.A.AeA fAeA |
fAeA dBGB |1 A2eA fAeA d2BG DGBG :|2 (3.e.e.ef (3.g.g.ge | d2BG DGBG ||
<end>
<start>
